X:1
T: American Air #1
C:
R:Reel
I:speed 232
Q:232
K:D
M:4/4
L:1/8
|:d3e f2f2|g2a2 f4|Adf2 Adf2|eg fe dc BA|
d3e f2f2|g2a2 f4|Adf2 Adf2|e2c2 d4|
e4 d3B|c2 e4 a2|^g2f2 e2d2|c6z2
e4 d3B|c2 e4 a2|^g2f2 d2B2|A4A4:|
